!!!COM: Anon.
!!!OTL: Mundus A Munditia
!!!SCA: Folio 240'
!!!YOR: from 'Thirty-Five Conductus for Two and Three Voices', p.44
!!!YOR: edited by Janet Knapp, Collegium Musicum No. 6, Yale University (1965)
!!!YOR: from the School of Notre Dame; circa 1170-1240
!!!YOO: Yale University
!!!YOY: 1965
**kern	**kern	**kern
*M6/8	*M6/8	*M6/8
=1	=1	=1
4g	4G	4d
8f	8A	8f
16e	4F	4f
16d	.	.
8c	.	.
8B-	8B-	8f
=2	=2	=2
8A	8c	8e
8G	8d	8d
8F	8f	8f
4G	4d	4g
8r	8r	8r
=3	=3	=3
4F	4c	4f
8G	8d	8d
4B-	4f	4B-
8B-	8f	8d
=4	=4	=4
8B-	16f	8f
.	16e	.
8A	8d	8e
8B-	8c	8f
4G	4d	4g
8r	8r	8r
=5	=5	=5
4B-	4B-	4f
8c	8A	8e
4d	4G	4g
8e	8A	8e
=6	=6	=6
8f	4F	4c
8e	.	.
8c	8G	16d
.	.	16e
8B-	8B-	4f
8B-	8B-	.
8A	8c	8r
=7	=7	=7
4G	8d	8e
.	16d	8d
.	16c	.
8A	8A	8e
4F	4c	4f
8r	8r	8r
=8	=8	=8
4F	4f	4c
8G	8d	8d
4B-	4B-	4f
8c	8A	8e
=9	=9	=9
8d	8G	8d
8c	8A	8c
8B-	8B-	8d
8A	4c	4f
8G	.	.
8F	8r	8r
=10	=10	=10
4F	4c	4f
8G	{24d	8d
.	24d	.
.	24c}	.
4B-	16B-	4e
.	16A	.
.	8G	.
8c	8F	8f
=11	=11	=11
8A	4c	16e
.	.	16d
8F	.	8c
8G	{24B-	8d
.	24A	.
.	24G}	.
4.A	4.c	4.f
=12	=12	=12
4.G	4.d	4.g
4.r	4.r	4.r
==	==	==
*-	*-	*-
!!!ENC: David Huron
!!!YEC: Copyright 1987, David Huron
!!!EEV: 1.0
